Catalina-dark/actions/22/filename-bpm-amarok.svg

<svg xmlns="http://www.w3.org/2000/svg" viewBox="0 0 22 22">
  <defs id="defs3051">
    <style type="text/css" id="current-color-scheme">
      .ColorScheme-Text {
        color:#f2f2f2
      }
      </style>
  </defs>
 <path 
     style="fill:currentColor;fill-opacity:1;stroke:none"      
	 class="ColorScheme-Text"
        d="M 11 3 C 6.5817009 3 3 6.5817009 3 11 C 3 15.418299 6.5817009 19 11 19 C 15.418298 19 19 15.418299 19 11 C 19 6.5817009 15.418298 3 11 3 z M 10.845703 4.5527344 C 10.929106 4.5501289 11.012539 4.555164 11.095703 4.5585938 C 11.262643 4.5616778 11.427528 4.5765094 11.59375 4.5917969 C 11.924784 4.6310924 12.255533 4.6879339 12.576172 4.7734375 C 13.217901 4.9414407 13.828665 5.199725 14.375 5.5292969 C 14.444365 5.5688317 14.510555 5.6120093 14.576172 5.65625 C 14.642081 5.7000921 14.709257 5.7419647 14.773438 5.7871094 C 14.900204 5.8796054 15.028093 5.967556 15.146484 6.0664062 C 15.38909 6.2573537 15.610411 6.4663676 15.816406 6.6777344 C 16.223825 7.1049335 16.561846 7.55751 16.822266 8.0078125 C 17.083775 8.4576371 17.273632 8.8993571 17.410156 9.3027344 C 17.548701 9.7060053 17.629663 10.072361 17.681641 10.375 C 17.694004 10.450906 17.705737 10.522233 17.716797 10.589844 C 17.726235 10.659741 17.733162 10.728696 17.740234 10.791016 C 17.746934 10.853814 17.752096 10.911643 17.757812 10.964844 C 17.762944 11.016981 17.764654 11.053565 17.767578 11.091797 C 17.777282 11.238238 17.78125 11.316406 17.78125 11.316406 L 16.154297 11.357422 C 16.154297 11.357422 16.156023 11.279599 16.158203 11.132812 C 16.158469 11.097744 16.161193 11.051399 16.160156 11.013672 C 16.158907 10.977062 16.157579 10.935755 16.15625 10.892578 C 16.154947 10.848949 16.153779 10.80199 16.152344 10.751953 C 16.148037 10.698593 16.143537 10.641905 16.138672 10.582031 C 16.117695 10.342696 16.077544 10.051363 15.994141 9.7246094 C 15.912625 9.3977228 15.791375 9.034795 15.611328 8.65625 C 15.432345 8.2773061 15.187738 7.8879113 14.882812 7.5097656 C 14.728023 7.3229923 14.561336 7.135215 14.373047 6.9609375 C 14.281854 6.8703821 14.181121 6.7894528 14.082031 6.703125 C 14.031649 6.6610644 13.979712 6.6213945 13.927734 6.5800781 C 13.876023 6.538443 13.821085 6.4985317 13.765625 6.4609375 C 13.330928 6.1473973 12.834091 5.8861659 12.296875 5.6972656 C 12.02856 5.6013396 11.749005 5.530669 11.464844 5.4726562 C 11.321992 5.4480101 11.178527 5.420474 11.033203 5.40625 C 10.960701 5.3972902 10.88762 5.388089 10.814453 5.3847656 L 10.705078 5.3769531 L 10.650391 5.3730469 L 10.623047 5.3710938 L 10.609375 5.3710938 L 10.601562 5.3710938 C 10.603849 5.3708545 10.587177 5.3696192 10.605469 5.3691406 C 10.451796 5.3681569 10.283579 5.3608189 10.148438 5.3691406 C 10.007925 5.3704434 9.861524 5.3840417 9.7148438 5.3964844 C 9.4232647 5.4300105 9.1322287 5.4767366 8.8496094 5.5507812 C 8.2838657 5.6959994 7.7454683 5.9222032 7.2617188 6.2109375 C 7.2001434 6.245341 7.1401237 6.2814155 7.0820312 6.3203125 C 7.0236995 6.3587838 6.9650726 6.3959323 6.9082031 6.4355469 C 6.796086 6.5170627 6.6810308 6.5945152 6.5761719 6.6816406 C 6.3606581 6.8491384 6.1657123 7.032854 5.9824219 7.21875 C 5.6204671 7.5950348 5.3180416 7.9952362 5.0859375 8.3925781 C 4.8526902 8.7895213 4.6831393 9.1788113 4.5605469 9.5351562 C 4.435987 9.8914214 4.3636778 10.214425 4.3164062 10.482422 C 4.3051068 10.549634 4.2933593 10.613954 4.2832031 10.673828 C 4.2758917 10.734127 4.2699996 10.791108 4.2636719 10.84375 C 4.2505645 10.949008 4.239492 11.038187 4.2363281 11.111328 C 4.2268898 11.258168 4.2226562 11.335938 4.2226562 11.335938 C 4.2226562 11.335938 4.2209301 11.258168 4.21875 11.111328 C 4.215985 11.037682 4.2181896 10.946431 4.2226562 10.839844 C 4.2247832 10.786484 4.2281291 10.729145 4.2304688 10.667969 C 4.2357596 10.606952 4.242118 10.543097 4.2480469 10.474609 C 4.2737565 10.200684 4.3185479 9.8660267 4.4160156 9.4921875 C 4.5115425 9.1183484 4.6547598 8.7030704 4.8632812 8.2714844 C 5.0706595 7.8395529 5.3507825 7.3979163 5.7011719 6.96875 C 5.8786929 6.7565061 6.0698285 6.543404 6.2851562 6.3457031 C 6.3898557 6.2434494 6.5054017 6.1501224 6.6191406 6.0527344 C 6.6768077 6.0051437 6.7373202 5.9605897 6.796875 5.9140625 C 6.8561639 5.8671099 6.9171652 5.8219158 6.9804688 5.7792969 C 7.4777245 5.4248128 8.0469814 5.1297338 8.6601562 4.9179688 C 8.9664645 4.8105838 9.2836992 4.7317508 9.6074219 4.6679688 C 9.769815 4.6404513 9.9317639 4.6117351 10.103516 4.5957031 C 10.279654 4.5729181 10.427027 4.5686579 10.585938 4.5566406 L 10.845703 4.5527344 z M 12.994141 9.015625 L 11.107422 11.765625 C 11.15682 12.088231 11.057793 12.430183 10.808594 12.677734 C 10.394263 13.08946 9.7242255 13.086259 9.3125 12.671875 C 8.9007479 12.257544 8.9040018 11.589486 9.3183594 11.177734 C 9.5675589 10.930157 9.9082881 10.833426 10.230469 10.884766 L 12.994141 9.015625 z "
     />
</svg>

<svg viewBox="0 0 22 22" xmlns="http://www.w3.org/2000/svg">
<defs>
<style id="current-color-scheme" type="text/css">.ColorScheme-Text {
        color:#f2f2f2
      }</style>
</defs>
<path class="ColorScheme-Text" d="m11 3c-4.4183 0-8 3.5817-8 8s3.5817 8 8 8 8-3.5817 8-8-3.5817-8-8-8zm-0.1543 1.5527c0.083403-0.0026055 0.16684 0.0024296 0.25 0.0058594 0.16694 0.003084 0.33182 0.017916 0.49805 0.033203 0.33103 0.039296 0.66178 0.096137 0.98242 0.18164 0.64173 0.168 1.2525 0.42629 1.7988 0.75586 0.069365 0.039535 0.13556 0.082712 0.20117 0.12695 0.065909 0.043842 0.13308 0.085715 0.19727 0.13086 0.12677 0.092496 0.25466 0.18045 0.37305 0.2793 0.24261 0.19095 0.46393 0.39996 0.66992 0.61133 0.40742 0.4272 0.74544 0.87978 1.0059 1.3301 0.26151 0.44982 0.45137 0.89154 0.58789 1.2949 0.13854 0.40327 0.21951 0.76963 0.27148 1.0723 0.012363 0.075906 0.024096 0.14723 0.035156 0.21484 0.009438 0.069897 0.016365 0.13885 0.023437 0.20117 0.0067 0.062798 0.011862 0.12063 0.017578 0.17383 0.005132 0.052137 0.006842 0.088721 0.009766 0.12695 0.009704 0.14644 0.013672 0.22461 0.013672 0.22461l-1.627 0.041016s0.001726-0.077823 0.003906-0.22461c2.66e-4 -0.035068 0.00299-0.081413 0.001953-0.11914-0.001249-0.03661-0.002577-0.077917-0.003906-0.12109-0.001303-0.043629-0.002471-0.090588-0.003906-0.14062-0.004307-0.05336-0.008807-0.11005-0.013672-0.16992-0.020977-0.23934-0.061128-0.53067-0.14453-0.85742-0.081516-0.32689-0.20277-0.68981-0.38281-1.0684-0.17898-0.37894-0.42359-0.76834-0.72852-1.1465-0.15479-0.18677-0.32148-0.37455-0.50976-0.54883-0.091193-0.090555-0.19193-0.17148-0.29102-0.25781-0.050382-0.042061-0.10232-0.08173-0.1543-0.12305-0.051711-0.041635-0.10665-0.081546-0.16211-0.11914-0.4347-0.31354-0.93153-0.57477-1.4688-0.76367-0.26832-0.095926-0.54787-0.1666-0.83203-0.22461-0.14285-0.024646-0.28632-0.052182-0.43164-0.066406-0.072502-0.0089598-0.14558-0.018161-0.21875-0.021484l-0.19141-0.013672h-0.021485c0.002287-2.393e-4 -0.014385-0.0014746 0.003907-0.0019532-0.15367-9.837e-4 -0.32189-0.0083217-0.45703 0-0.14051 0.0013028-0.28691 0.014901-0.43359 0.027344-0.29158 0.033526-0.58262 0.080252-0.86523 0.1543-0.56574 0.14522-1.1041 0.37142-1.5879 0.66016-0.061575 0.034404-0.1216 0.070478-0.17969 0.10938-0.058332 0.038471-0.11696 0.07562-0.17383 0.11523-0.11212 0.081516-0.22717 0.15897-0.33203 0.24609-0.21551 0.1675-0.41046 0.35121-0.59375 0.53711-0.36195 0.37628-0.66438 0.77649-0.89648 1.1738-0.23325 0.39694-0.4028 0.78623-0.52539 1.1426-0.12456 0.35627-0.19687 0.67927-0.24414 0.94727-0.011299 0.067212-0.023047 0.13153-0.033203 0.19141-0.0073114 0.060299-0.013204 0.11728-0.019531 0.16992-0.013107 0.10526-0.02418 0.19444-0.027344 0.26758-0.0094383 0.14684-0.013672 0.22461-0.013672 0.22461s-0.0017261-0.07777-0.0039062-0.22461c-0.002765-0.073646-5.604e-4 -0.1649 0.0039062-0.27148 0.002127-0.05336 0.0054729-0.1107 0.0078126-0.17188 0.0052908-0.061017 0.011649-0.12487 0.017578-0.19336 0.02571-0.27392 0.070501-0.60858 0.16797-0.98242 0.095527-0.37384 0.23874-0.78912 0.44727-1.2207 0.20738-0.43193 0.4875-0.87357 0.83789-1.3027 0.17752-0.21224 0.36866-0.42535 0.58398-0.62305 0.1047-0.10225 0.22025-0.19558 0.33398-0.29297 0.057667-0.047591 0.11818-0.092145 0.17773-0.13867 0.059289-0.046953 0.12029-0.092147 0.18359-0.13477 0.49726-0.35448 1.0665-0.64956 1.6797-0.86133 0.30631-0.10738 0.62354-0.18622 0.94727-0.25 0.16239-0.027518 0.32434-0.056234 0.49609-0.072266 0.17614-0.022785 0.32351-0.027045 0.48242-0.039062l0.25976-0.0039062zm2.1484 4.4629-1.8867 2.75c0.049398 0.32261-0.049629 0.66456-0.29883 0.91211-0.41433 0.41173-1.0844 0.40852-1.4961-0.005859-0.41175-0.41433-0.4085-1.0824 0.0058594-1.4941 0.2492-0.24758 0.58993-0.34431 0.91211-0.29297l2.7637-1.8691z" fill="currentColor"/>
</svg>
